static/images/footer/pointer.svg

<svg width="126" height="280" viewBox="0 0 126 280" fill="none" xmlns="http://www.w3.org/2000/svg">
<path fill-rule="evenodd" clip-rule="evenodd" d="M28.4561 121.37L53.3396 203.023L65.3938 272.463H74.8452L62.1079 121.37H28.4561Z" fill="#997659"/>
<path fill-rule="evenodd" clip-rule="evenodd" d="M19.5097 121.37C21.1998 166.202 19.2107 189.327 18.8325 193.4C18.4542 197.473 13.2744 223.883 1.01172 273.83L11.0828 270.358C30.4628 224.55 37.0668 200.742 39.2895 194.727C41.5122 188.712 47.4157 164.26 56.9999 121.37H19.5097Z" fill="#B28B67"/>
<path fill-rule="evenodd" clip-rule="evenodd" d="M1.10967 270.311C0.369891 272.293 0 273.776 0 274.76C0 275.957 0.19865 277.704 0.59595 280C1.97925 280 14.4112 280 37.8919 280C38.8611 276.784 38.3016 275.048 36.2135 274.791C34.1253 274.535 32.3907 274.303 31.0095 274.097L13.6747 266.34C13.3412 266.191 12.9502 266.341 12.8015 266.676C12.799 266.682 12.7965 266.687 12.7941 266.693L11.6799 269.406C9.74681 270.311 8.17599 270.764 6.96742 270.764C5.98549 270.764 4.62944 270.366 2.89925 269.57L2.89926 269.57C2.23529 269.264 1.4503 269.557 1.14593 270.223C1.13281 270.252 1.12072 270.281 1.10967 270.311Z" fill="#E4E4E4"/>
<path fill-rule="evenodd" clip-rule="evenodd" d="M63.2855 270.311C62.5457 272.293 62.1758 273.776 62.1758 274.76C62.1758 275.957 62.3744 277.704 62.7717 280C64.155 280 76.587 280 100.068 280C101.037 276.784 100.477 275.048 98.3892 274.791C96.3011 274.535 94.5665 274.303 93.1853 274.097L75.8505 266.34C75.517 266.191 75.126 266.341 74.9773 266.676C74.9748 266.682 74.9723 266.687 74.9699 266.693L73.8557 269.406C71.9226 270.311 70.3518 270.764 69.1432 270.764C68.1613 270.764 66.8052 270.366 65.075 269.57L65.075 269.57C64.4111 269.264 63.6261 269.557 63.3217 270.223C63.3086 270.252 63.2965 270.281 63.2855 270.311Z" fill="#E4E4E4"/>
<path fill-rule="evenodd" clip-rule="evenodd" d="M25.1484 121.37L35.7285 162.971H68.0442L63.2258 121.37H25.1484Z" fill="#2B5390"/>
<path fill-rule="evenodd" clip-rule="evenodd" d="M25.1484 121.37L35.7285 162.971H68.0442L63.2258 121.37H25.1484Z" fill="black" fill-opacity="0.15"/>
<path fill-rule="evenodd" clip-rule="evenodd" d="M19.1616 121.37C15.6804 131.844 15.0192 145.711 17.1779 162.971H50.1548L59.2228 121.37H19.1616Z" fill="#2B5390"/>
<path fill-rule="evenodd" clip-rule="evenodd" d="M35.7342 32.2468C32.2519 28.1441 29.895 23.1162 30.2889 17.4822C31.4236 1.24931 53.9368 4.82035 58.3161 13.0133C62.6953 21.2063 62.175 41.9885 56.5152 43.4528C54.258 44.0368 49.4497 42.6063 44.5559 39.6456L47.6276 61.4577H29.4902L35.7342 32.2468Z" fill="#B28B67"/>
<path fill-rule="evenodd" clip-rule="evenodd" d="M59.992 16.6753C59.8123 15.6133 59.3733 14.434 59.019 13.4292C58.5622 12.134 57.871 10.9662 57.1103 9.86555C55.6782 7.79341 53.9602 5.92222 52.0633 4.36918C48.5985 1.53241 44.1879 -0.103854 39.8507 0.427524C37.6608 0.695797 35.535 1.53422 33.7256 2.92973C32.0909 4.19059 30.5184 6.04666 28.4017 6.18002C26.0984 6.32502 23.9871 4.28454 22.1399 3.02432C20.0572 1.60361 17.8416 0.56838 15.4074 0.16597C11.3295 -0.507944 7.49872 0.874904 4.68834 4.23297C1.69773 7.80646 -0.476226 13.047 1.48773 17.7818C1.85279 18.662 2.32244 19.404 2.99645 20.019C3.6146 20.5829 4.55869 21.1829 4.80933 22.084C5.07554 23.0418 4.2803 24.2775 3.97193 25.1418C3.53016 26.38 3.16744 27.6798 3.29639 29.0257C3.50826 31.2359 4.89213 33.3459 6.35341 34.7987C7.84047 36.2771 9.67068 37.1248 11.6255 37.5156C12.9308 37.7765 14.2648 37.9204 15.5914 37.8225C16.2499 37.7739 16.8311 37.5902 17.4691 37.4442C18.0896 37.3022 18.4364 37.4676 18.9628 37.8092C21.4084 39.396 24.0379 40.01 26.8618 39.774C29.245 39.5748 31.9919 38.9951 33.9361 37.3561C36.0952 35.5358 36.0522 33.0257 35.5441 30.3439C36.0824 30.6116 37.5716 30.7774 36.6817 29.7102C36.3292 29.2875 35.6631 29.1155 35.2108 28.8668C34.6841 28.5774 34.1493 28.2033 33.7404 27.7311C32.089 25.8245 33.7569 21.9443 35.8325 21.3049C38.9162 20.355 39.6066 24.7322 41.808 25.8645C43.0737 26.5156 44.3977 25.6257 45.346 24.7171C46.6163 23.4999 47.482 21.8875 48.2294 20.2465C48.8451 18.8952 49.4181 17.5249 50.0456 16.1803C50.3386 15.5524 51.3531 13.7774 50.8436 13.0674C53.0524 12.6253 55.5124 13.5466 57.4147 14.7547C58.2009 15.2542 58.8003 15.8048 59.2197 16.6865C59.3095 16.8754 59.5051 17.437 59.7507 17.46C60.208 17.5029 60.0371 16.9421 59.992 16.6753Z" fill="url(#paint0_radial)"/>
<path fill-rule="evenodd" clip-rule="evenodd" d="M71.5793 105.241L88.0983 126.369C93.3122 129.47 97.494 132.685 100.644 136.014C101.31 137.081 101.928 139.038 98.3008 137.718C94.6736 136.398 90.7988 135.173 89.9333 136.299C89.0677 137.425 90.8876 139.569 89.3759 140.993C88.3682 141.942 85.9101 138.171 82.0018 129.68L63.8006 115.365L71.5793 105.241Z" fill="#B28B67"/>
<path fill-rule="evenodd" clip-rule="evenodd" d="M84.2837 47.0025L110.129 39.94C115.009 36.326 119.593 33.7098 123.878 32.0916C125.118 31.8905 127.156 32.0788 124.529 34.9179C121.902 37.7571 119.266 40.8621 119.963 42.0991C120.66 43.3362 123.339 42.4867 124.057 44.4363C124.536 45.736 120.114 46.5435 110.792 46.8587L90.5475 58.1202L84.2837 47.0025Z" fill="#B28B67"/>
<path fill-rule="evenodd" clip-rule="evenodd" d="M50.0549 56.4944C55.9591 80.7322 68.2214 101.302 87.7221 124.423L76.0532 132.326C51.9598 115.53 39.4372 105.914 37.709 84.0046C37.2752 78.5058 40.2072 62.0865 41.3479 53.3441L50.0549 56.4944Z" fill="#060B8D"/>
<path fill-rule="evenodd" clip-rule="evenodd" d="M50.0549 56.4944C55.9591 80.7322 68.2214 101.302 87.7221 124.423L76.0532 132.326C51.9598 115.53 39.4372 105.914 37.709 84.0046C37.2752 78.5058 40.2072 62.0865 41.3479 53.3441L50.0549 56.4944Z" fill="black" fill-opacity="0.25"/>
<path fill-rule="evenodd" clip-rule="evenodd" d="M15.1709 129H67.2845C55.4799 92.8645 49.4497 68.0631 49.1938 54.5962C49.1807 53.9096 47.9174 52.6998 47.3585 52.8583C43.2713 54.0169 38.8977 53.5837 34.2376 51.5586C21.8831 71.5022 17.6106 96.0567 15.1709 129Z" fill="#F2F2F2"/>
<path fill-rule="evenodd" clip-rule="evenodd" d="M38.6858 51.6402C53.6239 51.7629 77.0491 49.5068 105 40.5L109 53.9017C87.8749 67.5388 66.5 80.5 47.3107 82.0349C55.45 117.078 55.0748 145.765 37.1054 145.765C28.5241 145.765 19.2618 145.765 9.31848 145.765C4.90528 115.996 16.504 74.7207 27.2569 53.9017C27.6676 53.1067 28.5418 51.608 30.601 51.608C32.3953 51.608 35.0866 51.608 38.6751 51.608C38.6787 51.6187 38.6822 51.6294 38.6858 51.6402Z" fill="#060B8D"/>
<defs>
<radialGradient id="paint0_radial" cx="0" cy="0" r="1" gradientUnits="userSpaceOnUse" gradientTransform="translate(47.5 31.5) rotate(-150.673) scale(51.0416 76.0371)">
<stop stop-color="#930000"/>
<stop offset="1" stop-color="#CC2200"/>
</radialGradient>
</defs>
</svg>

<svg width="126" height="280" fill="none" xmlns="http://www.w3.org/2000/svg"><path fill-rule="evenodd" clip-rule="evenodd" d="M28.456 121.37l24.884 81.653 12.054 69.44h9.451L62.108 121.37H28.456z" fill="#997659"/><path fill-rule="evenodd" clip-rule="evenodd" d="M19.51 121.37c1.69 44.832-.3 67.957-.678 72.03-.378 4.073-5.558 30.483-17.82 80.43l10.07-3.472c19.38-45.808 25.985-69.616 28.207-75.631 2.223-6.015 8.127-30.467 17.71-73.357H19.51z" fill="#B28B67"/><path fill-rule="evenodd" clip-rule="evenodd" d="M1.11 270.311C.37 272.293 0 273.776 0 274.76c0 1.197.199 2.944.596 5.24h37.296c.97-3.216.41-4.952-1.678-5.209a207.177 207.177 0 01-5.204-.694l-17.335-7.757a.66.66 0 00-.873.336l-.008.017-1.114 2.713c-1.933.905-3.504 1.358-4.713 1.358-.982 0-2.338-.398-4.068-1.194a1.32 1.32 0 00-1.79.741zM63.285 270.311c-.74 1.982-1.11 3.465-1.11 4.449 0 1.197.2 2.944.597 5.24h37.296c.969-3.216.409-4.952-1.679-5.209a207.224 207.224 0 01-5.204-.694L75.85 266.34a.66.66 0 00-.873.336l-.007.017-1.114 2.713c-1.933.905-3.504 1.358-4.713 1.358-.982 0-2.338-.398-4.068-1.194a1.32 1.32 0 00-1.79.741z" fill="#E4E4E4"/><path fill-rule="evenodd" clip-rule="evenodd" d="M25.148 121.37l10.58 41.601h32.316l-4.818-41.601H25.148z" fill="#2B5390"/><path fill-rule="evenodd" clip-rule="evenodd" d="M25.148 121.37l10.58 41.601h32.316l-4.818-41.601H25.148z" fill="#000" fill-opacity=".15"/><path fill-rule="evenodd" clip-rule="evenodd" d="M19.162 121.37c-3.482 10.474-4.143 24.341-1.984 41.601h32.977l9.068-41.601H19.162z" fill="#2B5390"/><path fill-rule="evenodd" clip-rule="evenodd" d="M35.734 32.247c-3.482-4.103-5.839-9.13-5.445-14.765C31.424 1.25 53.937 4.82 58.316 13.013c4.38 8.193 3.859 28.976-1.8 30.44-2.258.584-7.066-.847-11.96-3.807l3.072 21.812H29.49l6.244-29.211z" fill="#B28B67"/><path fill-rule="evenodd" clip-rule="evenodd" d="M59.992 16.675c-.18-1.062-.619-2.241-.973-3.246-.457-1.295-1.148-2.463-1.909-3.563a26.894 26.894 0 00-5.047-5.497C48.598 1.532 44.188-.104 39.851.428a12.511 12.511 0 00-6.125 2.502c-1.635 1.26-3.208 3.117-5.324 3.25-2.304.145-4.415-1.895-6.262-3.156-2.083-1.42-4.298-2.456-6.733-2.858C11.33-.508 7.5.875 4.688 4.233c-2.99 3.573-5.164 8.814-3.2 13.549.365.88.834 1.622 1.508 2.237.619.564 1.563 1.164 1.813 2.065.267.958-.529 2.194-.837 3.058-.442 1.238-.805 2.538-.676 3.884.212 2.21 1.596 4.32 3.057 5.773 1.487 1.478 3.318 2.326 5.273 2.717 1.305.26 2.639.404 3.965.306.659-.048 1.24-.232 1.878-.378.62-.142.967.024 1.494.365 2.445 1.587 5.075 2.201 7.899 1.965 2.383-.2 5.13-.779 7.074-2.418 2.16-1.82 2.116-4.33 1.608-7.012.538.268 2.028.433 1.138-.634-.353-.422-1.019-.595-1.471-.843-.527-.29-1.062-.664-1.47-1.136-1.652-1.907.016-5.787 2.092-6.426 3.083-.95 3.774 3.427 5.975 4.56 1.266.65 2.59-.24 3.538-1.148 1.27-1.217 2.136-2.83 2.883-4.47.616-1.352 1.19-2.722 1.817-4.067.293-.628 1.307-2.403.798-3.113 2.208-.442 4.668.48 6.57 1.688.787.5 1.386 1.05 1.806 1.931.09.19.285.751.53.774.458.043.287-.518.242-.785z" fill="url(#paint0_radial)"/><path fill-rule="evenodd" clip-rule="evenodd" d="M71.58 105.241l16.518 21.128c5.214 3.101 9.396 6.316 12.546 9.645.666 1.067 1.284 3.024-2.343 1.704s-7.502-2.545-8.368-1.419c-.865 1.126.955 3.27-.557 4.694-1.008.949-3.466-2.822-7.374-11.313L63.8 115.365l7.778-10.124zM84.284 47.002l25.845-7.062c4.88-3.614 9.464-6.23 13.749-7.848 1.24-.201 3.278-.013.651 2.826-2.627 2.84-5.263 5.944-4.566 7.181.697 1.237 3.376.388 4.094 2.337.479 1.3-3.943 2.108-13.265 2.423L90.547 58.12l-6.263-11.117z" fill="#B28B67"/><path fill-rule="evenodd" clip-rule="evenodd" d="M50.055 56.494c5.904 24.238 18.166 44.808 37.667 67.929l-11.669 7.903C51.96 115.53 39.437 105.914 37.71 84.005c-.434-5.5 2.498-21.918 3.639-30.66l8.707 3.15z" fill="#060B8D"/><path fill-rule="evenodd" clip-rule="evenodd" d="M50.055 56.494c5.904 24.238 18.166 44.808 37.667 67.929l-11.669 7.903C51.96 115.53 39.437 105.914 37.71 84.005c-.434-5.5 2.498-21.918 3.639-30.66l8.707 3.15z" fill="#000" fill-opacity=".25"/><path fill-rule="evenodd" clip-rule="evenodd" d="M15.17 129h52.114C55.48 92.865 49.45 68.063 49.194 54.596c-.013-.686-1.277-1.896-1.836-1.738-4.087 1.159-8.46.726-13.12-1.3C21.883 71.503 17.61 96.058 15.17 129z" fill="#F2F2F2"/><path fill-rule="evenodd" clip-rule="evenodd" d="M38.686 51.64c14.938.123 38.363-2.133 66.314-11.14l4 13.402C87.875 67.539 66.5 80.5 47.31 82.035c8.14 35.043 7.765 63.73-10.205 63.73H9.318c-4.413-29.769 7.186-71.044 17.939-91.863.41-.795 1.285-2.294 3.344-2.294h8.074l.01.032z" fill="#060B8D"/><defs><radialGradient id="paint0_radial" cx="0" cy="0" r="1" gradientUnits="userSpaceOnUse" gradientTransform="matrix(-44.50004 -24.99984 37.24247 -66.29208 47.5 31.5)"><stop stop-color="#930000"/><stop offset="1" stop-color="#C20"/></radialGradient></defs></svg>
